X:1
T:Lieder für Männerchor
T:Das Reh
T:Niels Wilhelm Gade
T:Ludwig Uhland
T:Das Reh
T:Nr. 5 aus Lieder für Männerchor, Op. 26
T:CPDL - Creative Commons Attribution Non Commercial 3.0
T:CPDL - Creative Commons Attribution Non Commercial 3.0
T:CPDL - Creative Commons Attribution Non Commercial 3.0
T:CPDL - Creative Commons Attribution Non Commercial 3.0
C:Niels Wilhelm Gade
Z:Ludwig Uhland
Z:CPDL - Creative Commons Attribution Non Commercial 3.0
%%score [ ( 1 2 ) ( 3 4 ) ]
L:1/8
Q:1/4=100
M:4/4
K:Eb
V:1 treble-8 nm="Tenor"
V:2 treble-8 
V:3 bass nm="Bass"
V:4 bass 
V:1
"^Allegro""^Mit Humor" z | z4 z2 z!f! B | (B2 c)d e2 d2 | c>d d4 B>d | !>!f3 d B>c d>e | %5
w: |Es|jagt' _ ein Jä- ger|früh am Tag ein _|Reh durch Wäl- * der und|
 f>g f2 z4 | z8 | z4 z2 z B | (B2 c)d e2 d2 | c>d d4"^dol." (d2 | .^c2 .d2 .c2 .d2) | %11
w: Au- * en,||da|sah _ er aus dem|Gar- ten- hag ein|ro- sig Mägd- lein|
!>(! (f3 e)!>)! d2!p! f2 |[Q:1/4=96]"^ritenuto" (.g2 .f2 .d2 .B2) |!<(! (d6!<)!!>(! c2)!>)! | %14
w: schau- * en, ein|ro- sig Mägd- lein|schau- *|
 !fermata!B4 !fermata!z2 z2 |[Q:1/4=90]"^poco Lento""^Solo" z8 |"^Solo" z4 z2!p! B2 | %17
w: en.||Hat|
 B2 B2!<(! B3!<)!!>(! e!>)! | d4 !fermata!f2 z2 | z8 | z4 z2!p! B2 | B2 BB!<(! B3!<)!!>(! e!>)! | %22
w: es den Fuß ver-|let- zet?||dass|er nicht mehr ruft und|
 d4 !fermata!f2 !fermata!z |[Q:1/4=100]"^Allegro""^Chor" z | z8 | z4 z2!f! z B | (B2 c)d e2 d2 | %27
w: het- zet?|||Das|Reh- * lein ren- net|
 c>d d4 B>d | !>!f3 d B>c d>e | f>g f2 z2!ff! e>e | e2 z3/2 e/ | e2 z3/2 e/ | e>f e2 z2 e>f | %33
w: im- mer noch ü- ber|Berg und Tal _ so _|ban- * ge. Halt doch|an, du|selt- sam|Tier- * lein, halt _|
 e z e>f e>f f>e | e2 z2 | z2!p! (.e2 | .e2 .e2) z2 (.e2 | .=e2 .e2) z2!<(! (.e2 | %38
w: an! halt _ an! halt an! halt|an!|der|Jä- ger ver-|gaß dich, der|
 .f2 .f2)!<)! z2 f2 |!>(! (_g4 f2)!>)! e2 |!f! (e4 =g4- | g4 f4) | e4 z2 B2 |"^dim." c4 d4 | %44
w: Jä- ger ver-|gaß _ dich|lan- *||ge; ver-|gaß dich|
!p! e8- |!<(! e8!<)! |!p!!>(! !fermata!E6!>)! z2 |] %47
w: lan-||ge!|
V:2
 x | x4 x2 x B | B3 B B2 B2 | B>B B4 B2 | !>!d3 B B2 B>c | d>e d2 x4 | z4 z2 z B | B6 B2 | %8
w: ||||||da|sah da|
 B3 B B2 B2 | B>B B4 (B2 | .B2 .B2 .B2 .B2) | B4 B2 B2 | (.B2 .B2 .B2 .B2) | (B6 =A2) | B4 x2 x2 | %15
w: |||||||
 x8 | x4 x2 B2 | B2 B2 B3 =A | B4 B2 x2 | x8 | x4 x2 B2 | B2 BB B3 =A | B4 d2 x | x | %24
w: |||||||||
 x7"^Chor"!f! B | B6 B2 | B3 B B2 B2 | B>B B4 B>B | !>!d3 B B2 B>c | d>e d2 x2 _d>d | _d2 x3/2 d/ | %31
w: Das|Reh- lein|ren- net im- mer,|||||
 _d2 x3/2 d/ | _d2 d2 x2 d2 | _d x d2 d>d d>d | _d2 x2 | x2 (._d2 | .c2 .c2) x2 (.c2 | %37
w: ||||||
 .c2 .c2) x2 (.c2 | .c2 .c2) x2 c2 | c6 c2 | (B8 | c4 d4) | e4 z4 | z4 z2 B2 | c8- | c8 | B6 x2 |] %47
w: ||||||ja|lan-||ge!|
V:3
!f! B,, | (E,2 F,)G, (A,2 B,)A, | G,2 F,2 (E,2 F,2) | G,>F, F,4 D,>F, | !>!A,3 F, D,>E, F,>G, | %5
w: Es|jagt' _ ein Jä- * ger|früh am Tag _|_ _ _ _ _||
 A,>B, A,2 z4 | z4 z2 z B,, | (G,2 A,)B, (C2 B,)A, | G,2 F,2 E,2 F,2 | G,>F, F,4"^dol." (F,2 | %10
w: |da|sah _ er aus _ dem|Gar- ten- hag, aus||
 .=E,2 .F,2 .E,2 .F,2) |!>(! G,4!>)! F,2!p! F,2 | F,6 =E,2 |!<(! (F,6!<)!!>(! _E,2)!>)! | %14
w: ||||
 !fermata!D,4 z2 z2 |!p! z8 | z4 z2 z!p! F, | _G,2 z F, A,2 z G, | F,4 !fermata!D,2 z2 |!p! z8 | %20
w: ||Hat|es den Fuß ver-|let- zet?||
 z4 z2 z!p! F, | _G,2 z F, A,2 z G, | F,4 !fermata!B,2 !fermata!z |!f! B,, | %24
w: dass|er nicht ruft und|het- zet?|Das|
 (E,2 F,)=G, (A,2 B,)A, | (G,2 A,)B, (C2 B,)A, | G,2 F,2 E,2 F,2 | G,>F, F,4 D,>F, | %28
w: Reh- * lein ren- * net|im- * mer noch, _ das|Reh- lein ren- net||
 !>!A,3 F, D,>E, F,>G, | A,>B, A,2 z2!ff! G,A, | B,3 C | B,A, G,A, | B,>C B,2 z2 B,>C | %33
w: |* * * Halt _|an, du|selt- * sam _|Tier- * lein, * *|
 B, z B,>C B,>C C>B, | B,2 z2 | z2!p! (.G,2 | .A,2 .A,2) z2 (.A,2 | .A,2 .A,2) z2 A,2 | %38
w: |||||
!<(! (A,2 F,2)!<)! C,2 D,2 |!>(! (E,4 F,2)!>)! _G,2 |!f! (=G,4 B,4- | B,4) A,4 | %42
w: ||lan- *|* ge,|
!>(! (G,4 B,4-!>)! | B,4) A,4 |!p! A,8- |!<(! A,8!<)! |!p!!>(! !fermata!G,6!>)! z2 |] %47
w: ||lan-||ge!|
V:4
 B,, | (E,2 F,)G, (A,2 G,)F, | E,2 B,,2 (G,,2 B,,2) | E,>B,, B,,4 B,,2 | !>!B,,3 B,, B,,2 B,,>B,, | %5
w: |||||
 B,,2 B,,2 z3 B,, | (E,2 F,)G, (A,2 G,)F, | (E,2 F,)G, (A,2 G,)F, | E,2 B,,2 G,,2 B,,2 | %9
w: * * da|sah _ er aus _ dem|Gar- * ten- hag, _ da|sah er aus dem|
 E,>B,, B,,4 z2 | z8 | z4 z2 D,2 | (.^C,2 .D,2 .B,,2 .G,,2) | F,,8 | B,,4 !fermata!x2 x2 | %15
w: Gar- ten- hag||||||
 E,2 F,_G, (A,2 G,)F, | E,2 F,2 B,,2 x D, | E,2 x D, F,2 x E, | B,,4 B,,2 x2 | %19
w: Was ist ge- scheh'n * dem|gu- ten Pferd? *|||
 E,2 F,_G, (A,2 G,)F, | E,2 F,2 B,,2 x D, | E,2 x D, F,2 x E, | B,,4 B,,2 x | B,, | %24
w: Was ist ge- scheh'n * dem|Jä- ger wert, *||||
 (E,2 F,)G, (A,2 G,)F, | (E,2 F,)G, (A,2 G,)F, | E,2 B,,2 G,,2 B,,2 | E,>B,, B,,4 B,,>B,, | %28
w: ||||
 !>!B,,3 B,, B,,2 B,,2 | B,,2 B,,2 x2 E,F, | G,3 A, | G,F, E,F, | G,>A, G,2 x2 G,>A, | %33
w: |||||
 G, x G,>A, G,>A, A,>G, | G,2 z3/2!ff! E,/ | E,2 z2 | z2 z3/2!f! A,,/ A,,2 z2 | %37
w: |* halt|an!|halt an!|
 z2 z3/2!f! A,,/ A,,2 z2 | z2 z3/2 A,,/ A,,2 A,,A,, | =A,,6 A,,2 | B,,8- | B,,4 B,,4 | (B,,4 G,4- | %43
w: halt an!|der Jä- ger ver-|gaß dich|||lan- *|
 G,4) F,4 | (E,8 | A,,8) | [E,,E,]6 x2 |] %47
w: * ge,||||

